X:211
T:La Bienfacile. VWMLa.211
%%VWML:Anon2-3049-p132-0
F:http://www.vwml.org/record/Anon2/3049/p132
S:Anon. MS, late 18thC, Vaughan Williams Mem. Library
O:England;Yorkshire
Z:vmp/efdss.Simon Wilson. Reviewed PJH 2008.
M:2/4
L:1/8
Q:1/4=120
K:F
fccc|A>Bcc|fccc|A>Bcc|\
BB/d/ AA/c/|GG/A/ B/A/G/F/|EF A/G/F/E/|F2F2:|
|:f>gaa|d>eff|f/e/a/g/ f/e/d/c/|=B/c/d/B/G2|\
f/e/f/g/ a/f/e/d/|e/d/e/f/ g/e/c/e/|\
d/e/f/d/ e/c/d/=B/|!D.C.!c4:|
T:Rose Tree. VWMLa.212
R:Country-dance
S:Anon. MS, late 18thC, Vaughan Williams Mem. Library
N:Thought of as a polka nowadays..
O:England;Yorkshire
Z:vmp/efdss.Simon Wilson. Reviewed PJH 2008.
M:2/4
L:1/8
Q:1/4=120
K:D
f/e/|d>BAF|A>BAB|d2f/e/d/e/|feef|\
dBAF|A>BAB|d2f/e/d/e/|fdd:|
|:d|fefg|a2gf|eb2a|beef|\
dBAF|A2AB|d2f/e/d/e/|fdd:|
